;Generated by Cura LulzBot Edition GCodeWriter Version: 3.6.31
;FLAVOR:Marlin
;TIME:5708
;Filament used: 3.83254m
;Layer height: 0.38
;Generated with Cura_SteamEngine 3.6.31-win10
M82 ;absolute extrusion mode
;This G-Code has been generated specifically for the LulzBot TAZ 6 with standard extruder
M73 P0 ; clear GLCD progress bar
M75 ; start GLCD timer
G26 ; clear potential 'probe fail' condition
M107 ; disable fans
M420 S0 ; disable previous leveling matrix
G90 ; absolute positioning
M82 ; set extruder to absolute mode
G92 E0 ; set extruder position to 0
M140 S60.0 ; start bed heating up
M109 R140.0 ; soften filament before homing Z
G28 ; Home all axis
G1 E-15 F100 ; retract filament
M109 R140.0                  ; wait for extruder to reach wiping temp
G12                         ; wiping sequence
M109 R140.0 ; wait for extruder to reach probe temp
G1 X-10 Y293 F4000 ; move above first probe point
M204 S100 ; set probing acceleration
G29 ; start auto-leveling sequence
M420 S1 ; activate bed level matrix
M425 Z			     ; use measured Z backlash for compensation
M425 Z F0		     ; turn off measured Z backlash compensation. (if activated in the quality settings, this command will automatically be ignored)
M204 S500 ; restore standard acceleration
G1 X0 Y0 Z15 F5000 ; move up off last probe point
G4 S1 ; pause
M400 ; wait for moves to finish
M117 Heating... ; progress indicator message on LCD
M109 R205 ; wait for extruder to reach printing temp
M190 R60.0 ; wait for bed to reach printing temp
G1 Z2 E0 F75 ; prime tiny bit of filament into the nozzle
M117 TAZ 6 Printing... ; progress indicator message on LCD

M221 S100 T0
G92 E0
G1 F600 E-1
;LAYER_COUNT:224
;LAYER:0
M107
G0 F2625 X109.87 Y131.805 Z0.425
;TYPE:SKIRT
G1 F600 E0
G1 F900 X110.331 Y131.51 E0.01823
G1 X110.83 Y131.286 E0.03645
G1 X111.357 Y131.137 E0.05469
G1 X112.111 Y131.06 E0.07994
G1 X133.672 Y131.05 E0.79814
G1 X133.743 Y131.051 E0.80051
G1 X141.711 Y131.198 E1.06597
G1 X145.815 Y131.052 E1.20276
G1 X145.95 Y131.05 E1.20726
G1 X167.881 Y131.06 E1.93779
G1 X168.427 Y131.1 E1.95603
G1 X168.961 Y131.219 E1.97425
G1 X169.472 Y131.415 E1.99248
G1 X169.949 Y131.683 E2.01071
G1 X170.487 Y132.116 E2.03371
G1 X170.737 Y132.358 E2.0453
G1 X171.102 Y132.766 E2.06354
G1 X171.403 Y133.223 E2.08177
G1 X171.634 Y133.719 E2.09999
G1 X171.791 Y134.244 E2.11824
G1 X171.879 Y135.047 E2.14515
G1 X171.893 Y144.922 E2.47409
G1 X171.854 Y145.468 E2.49233
G1 X171.736 Y146.002 E2.51054
G1 X171.541 Y146.514 E2.52879
G1 X171.274 Y146.991 E2.547
G1 X170.83 Y147.543 E2.5706
G1 X170.575 Y147.805 E2.58278
G1 X170.166 Y148.168 E2.60099
G1 X169.708 Y148.468 E2.61923
G1 X169.211 Y148.698 E2.63747
G1 X168.686 Y148.853 E2.65571
G1 X167.888 Y148.939 E2.68244
G1 X145.62 Y148.94 E3.4242
G1 X145.5 Y148.938 E3.4282
G1 X141.019 Y148.794 E3.57754
G1 X138.325 Y148.801 E3.66728
G1 X134.185 Y148.948 E3.80527
G1 X134.05 Y148.95 E3.80977
G1 X112.116 Y148.94 E4.54039
G1 X111.57 Y148.9 E4.55863
G1 X111.036 Y148.781 E4.57685
G1 X110.525 Y148.585 E4.59509
G1 X110.048 Y148.317 E4.61331
G1 X109.487 Y147.862 E4.63737
G1 X109.229 Y147.608 E4.64943
G1 X108.868 Y147.197 E4.66765
G1 X108.571 Y146.737 E4.68589
G1 X108.344 Y146.239 E4.70412
G1 X108.191 Y145.713 E4.72237
G1 X108.11 Y144.936 E4.74839
G1 X108.111 Y135.063 E5.07727
G1 X108.151 Y134.517 E5.0955
G1 X108.27 Y133.982 E5.11376
G1 X108.466 Y133.471 E5.13199
G1 X108.733 Y132.994 E5.1502
G1 X109.204 Y132.417 E5.17501
G1 X109.456 Y132.164 E5.1869
G1 X109.87 Y131.805 E5.20516
G0 F2625 X110.197 Y132.185
G1 F900 X110.631 Y131.918 E5.22213
G1 X111.101 Y131.722 E5.23909
G1 X111.596 Y131.601 E5.25607
G1 X112.111 Y131.56 E5.27328
G1 X133.672 Y131.55 E5.99148
G1 X133.734 Y131.551 E5.99355
G1 X141.72 Y131.698 E6.25961
G1 X145.833 Y131.552 E6.3967
G1 X145.949 Y131.55 E6.40056
G1 X167.88 Y131.56 E7.13109
G1 X168.388 Y131.6 E7.14807
G1 X168.884 Y131.719 E7.16506
G1 X169.355 Y131.914 E7.18204
G1 X169.789 Y132.18 E7.199
G1 X170.139 Y132.475 E7.21424
G1 X170.389 Y132.717 E7.22583
G1 X170.727 Y133.099 E7.24282
G1 X171 Y133.529 E7.25979
G1 X171.203 Y133.996 E7.27675
G1 X171.33 Y134.49 E7.29374
G1 X171.379 Y135.047 E7.31237
G1 X171.393 Y144.922 E7.64131
G1 X171.354 Y145.43 E7.65828
G1 X171.236 Y145.926 E7.67526
G1 X171.042 Y146.397 E7.69223
G1 X170.776 Y146.832 E7.70921
G1 X170.472 Y147.194 E7.72496
G1 X170.217 Y147.456 E7.73714
G1 X169.834 Y147.792 E7.75411
G1 X169.403 Y148.064 E7.77109
G1 X168.935 Y148.266 E7.78807
G1 X168.442 Y148.391 E7.80501
G1 X167.888 Y148.439 E7.82353
G1 X145.62 Y148.44 E8.56529
G1 X145.516 Y148.438 E8.56875
G1 X141.034 Y148.294 E8.71813
G1 X138.306 Y148.301 E8.809
G1 X134.167 Y148.448 E8.94696
G1 X134.051 Y148.45 E8.95082
G1 X112.117 Y148.44 E9.68145
G1 X111.609 Y148.4 E9.69842
G1 X111.113 Y148.281 E9.71541
G1 X110.642 Y148.086 E9.7324
G1 X110.208 Y147.82 E9.74935
G1 X109.838 Y147.506 E9.76552
G1 X109.58 Y147.252 E9.77758
G1 X109.246 Y146.867 E9.79455
G1 X108.976 Y146.435 E9.81152
G1 X108.777 Y145.966 E9.82849
G1 X108.654 Y145.471 E9.84548
G1 X108.61 Y144.936 E9.86337
G1 X108.611 Y135.063 E10.19224
G1 X108.651 Y134.555 E10.20921
G1 X108.77 Y134.059 E10.2262
G1 X108.965 Y133.589 E10.24315
G1 X109.231 Y133.154 E10.26014
G1 X109.558 Y132.769 E10.27696
G1 X109.81 Y132.516 E10.28886
G1 X110.197 Y132.185 E10.30582
G0 F2625 X112.214 Y135.05
;TYPE:SUPPORT
G1 F900 X130.691 Y135.05 E10.9213
G1 X130.692 Y144.95 E11.25107
G1 X112.215 Y144.95 E11.86654
G1 X112.098 Y144.834 E11.87203
G1 X112.097 Y135.167 E12.19404
G1 X112.214 Y135.05 E12.19956
G0 F2625 X113.356 Y135.25
G1 F900 X113.356 Y144.75 E12.516
G0 F2625 X115.023 Y144.75
G1 F900 X115.023 Y135.25 E12.83245
G0 F2625 X116.69 Y135.25
G1 F900 X116.69 Y144.75 E13.1489
G0 F2625 X118.357 Y144.75
G1 F900 X118.357 Y135.25 E13.46535
G0 F2625 X120.024 Y135.25
G1 F900 X120.024 Y144.75 E13.7818
G0 F2625 X121.691 Y144.75
G1 F900 X121.691 Y135.25 E14.09825
G0 F2625 X123.358 Y135.25
G1 F900 X123.358 Y144.75 E14.41469
G0 F2625 X125.025 Y144.75
G1 F900 X125.025 Y135.25 E14.73114
G0 F2625 X126.692 Y135.25
G1 F900 X126.692 Y144.75 E15.04759
G0 F2625 X128.359 Y144.75
G1 F900 X128.359 Y135.25 E15.36404
G0 F2625 X130.026 Y135.25
G1 F900 X130.026 Y144.75 E15.68049
G0 F2625 X130.491 Y143.362
G1 F900 X112.296 Y143.362 E16.28657
G0 F2625 X112.296 Y141.695
G1 F900 X130.491 Y141.695 E16.89265
G0 F2625 X130.491 Y140.028
G1 F900 X112.296 Y140.028 E17.49873
G0 F2625 X112.296 Y138.361
G1 F900 X130.491 Y138.361 E18.10482
G0 F2625 X130.491 Y136.694
G1 F900 X112.296 Y136.694 E18.7109
G1 F600 E17.7109
G0 F2625 X135.753 Y134.339
G0 X144.246 Y134.339
G0 X149.308 Y135.05
G1 F600 E18.7109
G1 F900 X167.785 Y135.05 E19.32637
G1 X167.902 Y135.166 E19.33186
G1 X167.903 Y144.833 E19.65387
G1 X167.786 Y144.95 E19.65939
G1 X149.309 Y144.95 E20.27486
G1 X149.308 Y135.05 E20.60463
G0 F2625 X150.03 Y135.25
G1 F900 X150.03 Y144.75 E20.92108
G0 F2625 X151.697 Y144.75
G1 F900 X151.697 Y135.25 E21.23753
G0 F2625 X153.364 Y135.25
G1 F900 X153.364 Y144.75 E21.55398
G0 F2625 X155.031 Y144.75
G1 F900 X155.031 Y135.25 E21.87043
G0 F2625 X156.698 Y135.25
G1 F900 X156.698 Y144.75 E22.18688
G0 F2625 X158.365 Y144.75
G1 F900 X158.365 Y135.25 E22.50332
G0 F2625 X160.032 Y135.25
G1 F900 X160.032 Y144.75 E22.81977
G0 F2625 X161.699 Y144.75
G1 F900 X161.699 Y135.25 E23.13622
G0 F2625 X163.366 Y135.25
G1 F900 X163.366 Y144.75 E23.45267
G0 F2625 X165.033 Y144.75
G1 F900 X165.033 Y135.25 E23.76912
G0 F2625 X166.7 Y135.25
G1 F900 X166.7 Y144.75 E24.08557
G0 F2625 X167.703 Y143.362
G1 F900 X149.508 Y143.362 E24.69165
G0 F2625 X149.508 Y141.695
G1 F900 X167.703 Y141.695 E25.29773
G0 F2625 X167.703 Y140.028
G1 F900 X149.508 Y140.028 E25.90381
G0 F2625 X149.508 Y138.361
G1 F900 X167.703 Y138.361 E26.50989
G0 F2625 X167.703 Y136.694
G1 F900 X149.508 Y136.694 E27.11598
G1 F600 E26.11598
;MESH:
G0 F2625 X144.783 Y136.693
G0 X143.368 Y136.694
G0 X143.268 Y144
G0 X143.369 Y144
;TYPE:WALL-INNER
G1 F600 E27.11598
G1 F900 X143.369 Y144.25 E27.1243
G1 X143.119 Y144.25 E27.12969
G1 X136.632 Y144.25 E27.34578
G1 X136.631 Y136 E27.62059
G1 X136.631 Y135.75 E27.62891
G1 X136.881 Y135.75 E27.6343
G1 X143.368 Y135.75 E27.85039
G1 X143.369 Y144 E28.1252
G0 F2625 X143.869 Y144.5
;TYPE:WALL-OUTER
G1 F900 X143.869 Y144.75 E28.13352
G1 X143.619 Y144.75 E28.13891
G1 X136.132 Y144.75 E28.38831
G1 X136.131 Y135.5 E28.69643
G1 X136.131 Y135.25 E28.70476
G1 X136.381 Y135.25 E28.71014
G1 X143.868 Y135.25 E28.95954
G1 X143.869 Y144.5 E29.26766
G0 F2625 X143.869 Y144.75
G0 X143.299 Y144.18
G0 X142.879 Y143.76
;TYPE:SKIN
G1 F900 X137.122 Y143.76 E29.45943
G1 X137.121 Y136.24 E29.70992
G1 X142.878 Y136.24 E29.90169
G1 X142.879 Y143.76 E30.15218
G0 F2625 X137.877 Y143.534
G1 F900 X137.346 Y143.003 E30.1772
G0 F2625 X137.346 Y142.296
G1 F900 X138.584 Y143.534 E30.23552
G0 F2625 X139.291 Y143.534
G1 F900 X137.346 Y141.588 E30.32716
G0 F2625 X137.345 Y140.881
G1 F900 X139.998 Y143.534 E30.45214
G0 F2625 X140.705 Y143.534
G1 F900 X137.345 Y140.174 E30.61042
G0 F2625 X137.345 Y139.466
G1 F900 X141.412 Y143.534 E30.80204
G0 F2625 X142.119 Y143.534
G1 F900 X137.344 Y138.759 E31.02698
G0 F2625 X137.344 Y138.051
G1 F900 X142.654 Y143.361 E31.27712
G0 F2625 X142.654 Y142.654
G1 F900 X137.344 Y137.344 E31.52726
G0 F2625 X137.344 Y136.637
G1 F900 X142.654 Y141.947 E31.77741
G0 F2625 X142.654 Y141.24
G1 F900 X137.879 Y136.465 E32.00235
G0 F2625 X138.586 Y136.465
G1 F900 X142.653 Y140.532 E32.19394
G0 F2625 X142.653 Y139.825
M104 S200
G1 F900 X139.293 Y136.465 E32.35222
G0 F2625 X140 Y136.465
G1 F900 X142.653 Y139.118 E32.4772
G0 F2625 X142.653 Y138.41
G1 F900 X140.707 Y136.465 E32.56884
G0 F2625 X141.414 Y136.465
G1 F900 X142.653 Y137.703 E32.62719
G0 F2625 X142.653 Y136.996
G1 F900 X142.122 Y136.465 E32.6522
G1 F600 E31.6522
;MESH:NONMESH
G0 F2625 X136.645 Y135.764
G0 X135.217 Y135.765
G0 X113.356 Y135.05
;TIME_ELAPSED:85.222851
;LAYER:1
M140 S60
M221 S100 T0
M106 S102
G0 F6562.5 X113.356 Y135.05 Z0.805
;TYPE:SUPPORT
G1 F600 E32.6522
G1 F2250 X112.214 Y135.05 E32.68621
G1 X112.097 Y135.167 E32.69114
G1 X112.098 Y144.834 E32.97906
G1 X112.215 Y144.95 E32.98397
G1 X113.356 Y144.95 E33.01795
G1 X113.356 Y135.05 E33.3128
G1 X115.023 Y135.05 E33.36245
G1 X115.023 Y144.95 E33.65731
G1 X116.69 Y144.95 E33.70696
G1 X116.69 Y135.05 E34.00181
G1 X118.357 Y135.05 E34.05146
G1 X118.357 Y144.95 E34.34632
G1 X120.024 Y144.95 E34.39597
G1 X120.024 Y135.05 E34.69082
G1 X121.691 Y135.05 E34.74047
G1 X121.691 Y144.95 E35.03533
G1 X123.358 Y144.95 E35.08497
G1 X123.358 Y135.05 E35.37983
G1 X125.025 Y135.05 E35.42948
G1 X125.025 Y144.95 E35.72433
G1 X126.692 Y144.95 E35.77398
G1 X126.692 Y135.05 E36.06884
G1 X128.359 Y135.05 E36.11849
G1 X128.359 Y144.95 E36.41334
G1 X129.249 Y144.95 E36.43985
G1 X129.248 Y135.05 E36.73471
G1 X128.359 Y135.05 E36.76118
G1 F600 E35.76118
G0 F6562.5 X133 Y134.339
G0 X146.999 Y134.339
G0 X147.478 Y134.818
G0 X151.697 Y144.95
G1 F600 E36.76118
G1 F2250 X151.697 Y135.05 E37.05604
G1 X150.751 Y135.05 E37.08421
G1 X150.752 Y144.95 E37.37907
G1 X151.697 Y144.95 E37.40721
G1 X153.364 Y144.95 E37.45686
G1 X153.364 Y135.05 E37.75172
G1 X155.031 Y135.05 E37.80137
G1 X155.031 Y144.95 E38.09622
G1 X156.698 Y144.95 E38.14587
G1 X156.698 Y135.05 E38.44073
G1 X158.365 Y135.05 E38.49038
G1 X158.365 Y144.95 E38.78523
G1 X160.032 Y144.95 E38.83488
G1 X160.032 Y135.05 E39.12974
G1 X161.699 Y135.05 E39.17939
G1 X161.699 Y144.95 E39.47424
G1 X163.366 Y144.95 E39.52389
G1 X163.366 Y135.05 E39.81875
G1 X165.033 Y135.05 E39.86839
G1 X165.033 Y144.95 E40.16325
G1 X166.7 Y144.95 E40.2129
G1 X166.7 Y135.05 E40.50775
G1 X167.785 Y135.05 E40.54007
G1 X167.902 Y135.166 E40.54498
G1 X167.903 Y144.833 E40.83289
G1 X167.786 Y144.95 E40.83782
G1 X166.7 Y144.95 E40.87016
G1 F600 E39.87016
;MESH:
G0 F6562.5 X147.536 Y144.235
G0 X146.108 Y144.236
G0 X146.021 Y144
G0 X146.122 Y144
;TYPE:WALL-INNER
G1 F600 E40.87016
G1 F1500 X146.122 Y144.25 E40.87761
G1 X145.872 Y144.25 E40.88243
G1 X133.879 Y144.25 E41.23962
G1 X133.878 Y136 E41.48533
G1 X133.878 Y135.75 E41.49278
G1 X134.128 Y135.75 E41.4976
G1 X146.121 Y135.75 E41.85479
G1 X146.122 Y144 E42.1005
G0 F6562.5 X146.622 Y144.5
;TYPE:WALL-OUTER
G1 F1350 X146.622 Y144.75 E42.10795
G1 X146.372 Y144.75 E42.11276
G1 X133.379 Y144.75 E42.49974
G1 X133.378 Y135.5 E42.77524
G1 X133.378 Y135.25 E42.78268
G1 X133.628 Y135.25 E42.7875
G1 X146.621 Y135.25 E43.17448
G1 X146.622 Y144.5 E43.44997
G0 F6562.5 X146.622 Y144.75
G0 X146.052 Y144.18
G0 X145.632 Y143.76
;TYPE:SKIN
G1 F1350 X134.369 Y143.76 E43.78542
G1 X134.368 Y136.24 E44.00939
G1 X145.631 Y136.24 E44.34484
G1 X145.632 Y143.76 E44.56881
G0 F6562.5 X145.405 Y143.094
G1 F1350 X144.964 Y143.534 E44.58737
G0 F6562.5 X144.257 Y143.534
G1 F1350 X145.405 Y142.387 E44.6357
G0 F6562.5 X145.405 Y141.68
G1 F1350 X143.55 Y143.534 E44.71381
G0 F6562.5 X142.843 Y143.534
G1 F1350 X145.405 Y140.973 E44.8217
G0 F6562.5 X145.405 Y140.265
G1 F1350 X142.136 Y143.534 E44.95939
G0 F6562.5 X141.429 Y143.534
G1 F1350 X145.405 Y139.558 E45.12686
G0 F6562.5 X145.405 Y138.851
G1 F1350 X140.722 Y143.534 E45.32411
G0 F6562.5 X140.014 Y143.534
G1 F1350 X145.405 Y138.144 E45.55116
G0 F6562.5 X145.405 Y137.437
G1 F1350 X139.307 Y143.534 E45.80799
G0 F6562.5 X138.6 Y143.534
G1 F1350 X145.405 Y136.73 E46.09459
G0 F6562.5 X144.964 Y136.463
G1 F1350 X137.893 Y143.534 E46.39242
G0 F6562.5 X137.186 Y143.534
G1 F1350 X144.257 Y136.463 E46.69025
G0 F6562.5 X143.55 Y136.463
G1 F1350 X136.479 Y143.534 E46.98808
G0 F6562.5 X135.772 Y143.534
G1 F1350 X142.843 Y136.463 E47.28592
G0 F6562.5 X142.136 Y136.463
G1 F1350 X135.065 Y143.534 E47.58375
G0 F6562.5 X134.593 Y143.299
G1 F1350 X141.429 Y136.463 E47.87168
G0 F6562.5 X140.722 Y136.463
G1 F1350 X134.593 Y142.592 E48.12983
G0 F6562.5 X134.593 Y141.885
G1 F1350 X140.014 Y136.463 E48.35819
G0 F6562.5 X139.307 Y136.463
G1 F1350 X134.593 Y141.178 E48.55676
G0 F6562.5 X134.593 Y140.471
G1 F1350 X138.6 Y136.463 E48.72556
G0 F6562.5 X137.893 Y136.463
G1 F1350 X134.593 Y139.763 E48.86455
G0 F6562.5 X134.593 Y139.056
G1 F1350 X137.186 Y136.463 E48.97377
G0 F6562.5 X136.479 Y136.463
G1 F1350 X134.593 Y138.349 E49.05321
G0 F6562.5 X134.593 Y137.642
G1 F1350 X135.772 Y136.463 E49.10287
G0 F6562.5 X135.065 Y136.463
G1 F1350 X134.593 Y136.935 E49.12275
G1 F600 E48.12275
;MESH:NONMESH
G0 F6562.5 X133.892 Y135.764
G0 X132.464 Y135.765
G0 X113.356 Y135.05
;TIME_ELAPSED:109.890038
;LAYER:2
M106 S204
G0 F10500 X113.356 Y135.05 Z1.185
;TYPE:SUPPORT
G1 F600 E49.12275
G1 F3600 X112.214 Y135.05 E49.15676
G1 X112.097 Y135.167 E49.16169
G1 X112.098 Y144.834 E49.44961
G1 X112.215 Y144.95 E49.45451
G1 X113.356 Y144.95 E49.4885
G1 X113.356 Y135.05 E49.78335
G1 X115.023 Y135.05 E49.833
G1 X115.023 Y144.95 E50.12786
G1 X116.69 Y144.95 E50.17751
G1 X116.69 Y135.05 E50.47236
G1 X118.357 Y135.05 E50.52201
G1 X118.357 Y144.95 E50.81687
G1 X120.024 Y144.95 E50.86651
G1 X120.024 Y135.05 E51.16137
G1 X121.691 Y135.05 E51.21102
G1 X121.691 Y144.95 E51.50587
G1 X123.358 Y144.95 E51.55552
G1 X123.358 Y135.05 E51.85038
G1 X125.025 Y135.05 E51.90003
G1 X125.025 Y144.95 E52.19488
G1 X126.692 Y144.95 E52.24453
G1 X126.692 Y135.05 E52.53939
G1 X127.804 Y135.05 E52.57251
G1 X127.805 Y144.95 E52.86736
G1 X126.692 Y144.95 E52.90051
G1 F600 E51.90051
G0 F10500 X130.814 Y145.661
G0 X149.187 Y145.661
G0 X149.666 Y145.182
G0 X153.364 Y135.05
G1 F600 E52.90051
G1 F3600 X152.195 Y135.05 E52.93533
G1 X152.196 Y144.95 E53.23018
G1 X153.364 Y144.95 E53.26497
G1 X153.364 Y135.05 E53.55983
G1 X155.031 Y135.05 E53.60947
G1 X155.031 Y144.95 E53.90433
G1 X156.698 Y144.95 E53.95398
G1 X156.698 Y135.05 E54.24883
G1 X158.365 Y135.05 E54.29848
G1 X158.365 Y144.95 E54.59334
G1 X160.032 Y144.95 E54.64299
G1 X160.032 Y135.05 E54.93784
G1 X161.699 Y135.05 E54.98749
G1 X161.699 Y144.95 E55.28235
G1 X163.366 Y144.95 E55.332
G1 X163.366 Y135.05 E55.62685
G1 X165.033 Y135.05 E55.6765
G1 X165.033 Y144.95 E55.97136
G1 X166.7 Y144.95 E56.02101
G1 X166.7 Y135.05 E56.31586
G1 X167.785 Y135.05 E56.34818
G1 X167.902 Y135.166 E56.35308
G1 X167.903 Y144.833 E56.641
G1 X167.786 Y144.95 E56.64593
